X:1
T:Cozumel, CMD
T:Cozumel, CMD
T:William James Kirkpatrick, 1893
T:Public Domain Courtesy of the Cyber Hymnal™
C:William James Kirkpatrick, 1893
Z:Public Domain
Z:Courtesy of the Cyber Hymnal™
%%score ( 1 2 ) ( 3 4 )
L:1/8
Q:1/4=110
M:4/4
K:C
V:1 treble 
V:2 treble 
V:3 bass 
V:4 bass 
V:1
 G2 | [Ec]3 [Ec] [Ec]3 [EG] | [CE]2 [CF]2 [CG]3 [CG] | [CA]2 [CG]2 C2 [CE]2 | [B,D]6 G2 | %5
 [Ec]3 [Ec] [Ec]3 [EG] | [CE]2 [CF]2 [CG]2 [Ge]2 | [Gd]3 [GB] [^Fc]3 [DF] | [DG]6 G2 | %9
 [FB]3 [FB] [FA]2 [FB]2 | [Gc]3 [Gc] [GB]2 [Gc]2 | [Gd]3 [Gd] [Gc]2 [Gd]2 | [Ge]6 [Ge]2 | %13
 [Ff]3 [Ff] [Gd]2 [Gd]2 | [Ge]3 [Ge] [Ec]2 G2 | [FA]4 [Ac]4 | [Gc]4 [GB]4 | [Gc]6 |] %18
V:2
 G2 | x8 | x8 | x4 C2 x2 | x6 G2 | x8 | x8 | x8 | x6 G2 | x8 | x8 | x8 | x8 | x8 | x6 G2 | x8 | %16
 x8 | x6 |] %18
V:3
 G,2 | [C,G,]3 [C,G,] [C,G,]3 [C,G,] | [C,G,]2 [D,G,]2 [E,G,]3 [E,G,] | %3
 F,2 [E,G,]2 [E,G,]2 [C,G,]2 | [G,,G,]6 G,2 | [C,G,]3 [C,G,] [C,G,]3 [C,G,] | %6
 [C,G,]2 [D,G,]2 [E,G,]2 [C,C]2 | [D,B,]3 [D,G,] [D,A,]3 [D,C] | [G,,G,B,]6 G,2 | %9
 [G,D]3 [G,D] [G,C]2 [G,D]2 | [G,E]3 [G,E] [G,D]2 [G,E]2 | [G,F]3 [G,F] [G,E]2 [G,B,]2 | %12
 C6 [_B,C]2 | [A,C]3 [A,C] [G,B,]2 [G,B,]2 | C3 C [C,C]2 [E,C]2 | [F,C]4 (C2 F2) | [G,E]4 [G,D]4 | %17
 [C,E]6 |] %18
V:4
 G,2 | x8 | x8 | F,2 x6 | x6 G,2 | x8 | x8 | x8 | x6 G,2 | x8 | x8 | x8 | C6 x2 | x8 | C3 C x4 | %15
 x4 F,4 | x8 | x6 |] %18

